X: 3356
T: The LANDLUBBER
%R: reel, hornpipe
B: James Kerr "Merry Melodies" v.3 p.39 #356
Z: 2016 John Chambers <jc:trillian.mit.edu>
M: C
L: 1/8
K: C
(GE) |\
CEGc ecGE | FAde f2(fe) |\
dedc BAGF | EFGA G2(GE) |\
CEGc ecGE | FAde f2(ed) |\
egec BGFD | C2c2 c2 :|
|: (ef) |\
gece geag | fed^c d2(de) |\
fdBd fdgf | edcB c2(GE) |\
CEGc ecGE | FAde f2(ed) |\
egec BGFD | C2c2 c2 :|

%%sep 1 1 500
%%sep 1 1 500

